X: 30921
T: COTILLION No. 8. WINTHROP HALL SETT tune 1
C:
%R: march, reel
B: Elias Howe "The Musician's Companion" Part 3 1844 p.92 #1
S: http://imslp.org/wiki/The_Musician's_Companion_(Howe,_Elias)
Z: 2015 John Chambers <jc:trillian.mit.edu>
M: 2/4
L: 1/16
K: D
% - - - - - - - - - - - - - - - - - - - - - - - - - - - - -
A2 |\
d2dc d2f2 | a4 g2e2 | d2dc d2f2 | edcB A2A2 |\
d2dc d2f2 | a4 g2e2 | gfed cdec | d2A2D2 H|]
efe^d e2A2 | fgfe f2a2 | g2ge f2fd | edcB A2A2 |\
efe^d e2A2 | fgfe f2a2 | g2ge f2fd | edcB ABc"^D.C."A |]
F2 |\
B2B2 Bcde | f2f2 f2b2 | f2e2d2c2 | dedc B2F2 |\
B2B2 Bcde | f2f2 f2b2 | f2e2d2c2 | B6 "^D.C."y |]
% - - - - - - - - - - Dance description - - - - - - - - - -
%%begintext align
%% First 2 forward and back,
%% cross over,
%% chassa de chassa,
%% cross back,
%% balance partners and turn.
%% Next 2 &c.
%%endtext
% - - - - - - - - - - - - - - - - - - - - - - - - - - - - -
%%sep 1 1 300
